src/img/icons/icon-user.svg

<svg width="20" height="20" viewBox="0 0 20 20" fill="none" xmlns="http://www.w3.org/2000/svg">
<g clip-path="url(#clip0_0_1500)">
<path fill-rule="evenodd" clip-rule="evenodd" d="M17.0709 12.9277C15.9818 11.8383 14.6854 11.0324 13.2709 10.5443C14.7858 9.50074 15.7811 7.75482 15.7811 5.78016C15.7811 2.592 13.1877 -0.0013 9.9998 -0.0013C6.81206 -0.0013 4.2186 2.592 4.2186 5.78016C4.2186 7.75482 5.2139 9.50074 6.72886 10.5443C5.31436 11.0324 4.01798 11.8383 2.92884 12.9277C1.04 14.8166 -0.00016 17.3278 -0.00016 19.9984H1.5623C1.5623 15.3462 5.34732 11.5616 9.9998 11.5616C14.6523 11.5616 18.4373 15.3462 18.4373 19.9984H19.9999C19.9999 17.3278 18.9596 14.8166 17.0709 12.9277ZM5.78106 5.78016C5.78106 3.45348 7.67368 1.56136 9.9998 1.56136C12.326 1.56136 14.2186 3.45348 14.2186 5.78016C14.2186 8.10642 12.326 9.99894 9.9998 9.99894C7.67368 9.99894 5.78106 8.10642 5.78106 5.78016Z" fill="#29282D"/>
</g>
<defs>
<clipPath id="clip0_0_1500">
<rect width="20" height="20" fill="white"/>
</clipPath>
</defs>
</svg>

<svg width="20" height="20" fill="none" xmlns="http://www.w3.org/2000/svg"><g clip-path="url(#clip0_0_1500)"><path fill-rule="evenodd" clip-rule="evenodd" d="M17.07 12.928a9.957 9.957 0 00-3.8-2.384 5.78 5.78 0 002.511-4.764A5.788 5.788 0 0010 0a5.788 5.788 0 00-5.781 5.78 5.78 5.78 0 002.51 4.764 9.958 9.958 0 00-3.8 2.384 9.934 9.934 0 00-2.93 7.07h1.563c0-4.652 3.785-8.436 8.438-8.436 4.652 0 8.437 3.784 8.437 8.436H20a9.93 9.93 0 00-2.93-7.07zM5.782 5.78A4.223 4.223 0 0110 1.561a4.223 4.223 0 014.219 4.22 4.224 4.224 0 01-4.22 4.218A4.224 4.224 0 015.782 5.78z" fill="#29282D"/></g><defs><clipPath id="clip0_0_1500"><path fill="#fff" d="M0 0h20v20H0z"/></clipPath></defs></svg>
